X: 364
T: Waltz "Amurskye Volni" (Waves of the Amur)
R: waltz
O: Russian
B: German Goldenshteyn "Shpilt klezmorimlach klingen zoln di gesalach" New York 2003 v.3 #64
Z: 2013 John Chambers <jc:trillian.mit.edu>
N: The third part has 17 bars.
M: 3/4
L: 1/8
K: Dm
|:\
A,6- | A,2{C}B,2A,2 | F6- | F2E3D |\
^C6 - | C2E2z^C | A,6- | A,6 |
A,6- | A,2{C}B,2A,2 | G6- | G2F2E2 |\
D6 | F4G2 | A2B2A2 | G2F2E2 |
A6- | A2{c}B2A2 | f6- | f2e2d2 |\
g6 | b2d'2zb | a6- | a2g2f2 |
efgab2 | efgab2 | b4a2 | z2^g2a2 |\
{c'}b4a2 | e4f2 | d6- | d6 :|
|:\
d4^c2 | =c2z2cd | efgad'c' | b3aa2 |\
z2 {c'}b3a | a2z2A=B | ^cdefba | g3ff2 |
z2fedA | c3BB2 | z2efga | b3aa2 |\
z2defg | a3gg2 | z2e3f |[1 d6 :|[2 d4A2 |]
|: a6 |\
b4a2 | a2g3^f | g4A2 | g6 |\
a4e2 | g3f3e | f4d2 | a6 |
d'2z2c'2 | b6- | b3agf | ed^cBAG |\
F6 | E4F2 | D6- |[1 D4A2 :|[2 D2=B,2C2 |]
|: F6 | E2D3A, | C6- | C2=B,2C2 |\
_E6 | D2A,3C | B,6- | B,2^F,G,B,D |
A6 | G2F3D | E6 | F2E2D2 |\
D4C2 | A4G2 | F6- |[1 F2=B,2C2 :|[2 F6 |]
